src/apps/scalable/Zoom.svg

<svg width="64" height="64" version="1.1" xmlns="http://www.w3.org/2000/svg">
 <defs>
  <linearGradient id="linearGradient862-3" x1="7.9373" x2="7.9373" y1="15.081" y2="1.852" gradientTransform="scale(3.7796)" gradientUnits="userSpaceOnUse">
   <stop stop-color="#6083f1" offset="0"/>
   <stop stop-color="#85b6ff" offset="1"/>
  </linearGradient>
  <filter id="filter981" x="-.084859" y="-.1485" width="1.1697" height="1.297" color-interpolation-filters="sRGB">
   <feGaussianBlur stdDeviation="1.237486"/>
  </filter>
 </defs>
 <g transform="scale(3.7796)" shape-rendering="auto">
  <path d="m4.3693 0.52916c-2.1142 0-3.8402 1.7835-3.8402 3.9682v8.4675c0 2.1846 1.726 3.9682 3.8402 3.9682h8.1944c2.1142 0 3.8402-1.7835 3.8402-3.9682v-8.4675c0-2.1846-1.726-3.9682-3.8402-3.9682zm0.25704 0.52089h7.6808c1.8443 0 3.3291 1.5342 3.3291 3.44v7.9368c0 1.9058-1.4847 3.44-3.3291 3.44h-7.6808c-1.8443 0-3.3291-1.5342-3.3291-3.44v-7.9368c0-1.9058 1.4847-3.44 3.3291-3.44z" color="#000000" color-rendering="auto" dominant-baseline="auto" image-rendering="auto" opacity=".01" solid-color="#000000" stop-color="#000000" style="font-feature-settings:normal;font-variant-alternates:normal;font-variant-caps:normal;font-variant-east-asian:normal;font-variant-ligatures:normal;font-variant-numeric:normal;font-variant-position:normal;font-variation-settings:normal;inline-size:0;isolation:auto;mix-blend-mode:normal;shape-margin:0;shape-padding:0;text-decoration-color:#000000;text-decoration-line:none;text-decoration-style:solid;text-indent:0;text-orientation:mixed;text-transform:none;white-space:normal"/>
  <path d="m4.3587 0.79373c-1.9668 0-3.5639 1.6528-3.5639 3.6876v8.4996c0 2.0348 1.5971 3.6876 3.5639 3.6876h8.2162c1.9668 0 3.5644-1.6528 3.5644-3.6876v-8.4996c0-2.0348-1.5976-3.6876-3.5644-3.6876zm0.27222 0.25631h7.6718c1.8422 0 3.3251 1.5342 3.3251 3.44v7.9368c0 1.9058-1.483 3.44-3.3251 3.44h-7.6718c-1.8422 0-3.3251-1.5342-3.3251-3.44v-7.9368c0-1.9058 1.483-3.44 3.3251-3.44z" color="#000000" color-rendering="auto" dominant-baseline="auto" image-rendering="auto" opacity=".01" solid-color="#000000" stop-color="#000000" style="font-feature-settings:normal;font-variant-alternates:normal;font-variant-caps:normal;font-variant-east-asian:normal;font-variant-ligatures:normal;font-variant-numeric:normal;font-variant-position:normal;font-variation-settings:normal;inline-size:0;isolation:auto;mix-blend-mode:normal;shape-margin:0;shape-padding:0;text-decoration-color:#000000;text-decoration-line:none;text-decoration-style:solid;text-indent:0;text-orientation:mixed;text-transform:none;white-space:normal"/>
  <path d="m4.3097 1.0583c-1.8657 0-3.3751 1.5383-3.3751 3.439v8.4675c0 1.9007 1.57 3.439 3.4357 3.439h8.1996c1.8657 0 3.4274-1.5383 3.4274-3.439v-8.4675c0-1.9007-1.51-3.439-3.3756-3.439h-0.09688c1.794 0.086515 3.2138 1.5819 3.2138 3.4318v7.9368c0 1.9058-1.5059 3.44-3.3766 3.44h-7.7905c-1.8707 0-3.3766-1.5342-3.3766-3.44v-7.9368c0-1.8498 1.4199-3.3451 3.2138-3.4318z" color="#000000" color-rendering="auto" dominant-baseline="auto" image-rendering="auto" opacity=".03" solid-color="#000000" stop-color="#000000" style="font-feature-settings:normal;font-variant-alternates:normal;font-variant-caps:normal;font-variant-east-asian:normal;font-variant-ligatures:normal;font-variant-numeric:normal;font-variant-position:normal;font-variation-settings:normal;inline-size:0;isolation:auto;mix-blend-mode:normal;shape-margin:0;shape-padding:0;text-decoration-color:#000000;text-decoration-line:none;text-decoration-style:solid;text-indent:0;text-orientation:mixed;text-transform:none;white-space:normal"/>
  <path transform="scale(.26458)" d="m4 46.969v2.0312c0 6.6479 5.8957 12 12.544 12h30.961c6.6479 0 12.495-5.3521 12.495-12v-1.9922c-0.02117 7.1849-5.81 12.963-13 12.963h-29.998c-7.2032 0-13.002-5.7987-13.002-13.002z" color="#000000" color-rendering="auto" dominant-baseline="auto" image-rendering="auto" opacity=".03" solid-color="#000000" stop-color="#000000" style="font-feature-settings:normal;font-variant-alternates:normal;font-variant-caps:normal;font-variant-east-asian:normal;font-variant-ligatures:normal;font-variant-numeric:normal;font-variant-position:normal;font-variation-settings:normal;inline-size:0;isolation:auto;mix-blend-mode:normal;shape-margin:0;shape-padding:0;text-decoration-color:#000000;text-decoration-line:none;text-decoration-style:solid;text-indent:0;text-orientation:mixed;text-transform:none;white-space:normal"/>
  <path d="m1.0583 11.906v0.59234c0 1.9386 1.5729 3.4993 3.3318 3.4993h8.1603c1.7589 0 3.3243-1.5608 3.3243-3.4993v-0.58095c-0.0056 2.0952-1.5372 3.7801-3.4395 3.7801h-7.9368c-1.9058 0-3.44-1.691-3.44-3.7915z" color="#000000" color-rendering="auto" dominant-baseline="auto" image-rendering="auto" opacity=".05" solid-color="#000000" stop-color="#000000" style="font-feature-settings:normal;font-variant-alternates:normal;font-variant-caps:normal;font-variant-east-asian:normal;font-variant-ligatures:normal;font-variant-numeric:normal;font-variant-position:normal;font-variation-settings:normal;inline-size:0;isolation:auto;mix-blend-mode:normal;shape-margin:0;shape-padding:0;text-decoration-color:#000000;text-decoration-line:none;text-decoration-style:solid;text-indent:0;text-orientation:mixed;text-transform:none;white-space:normal"/>
 </g>
 <rect x="4" y="3.9686" width="56.002" height="56.002" rx="13.002" ry="13.002" fill="url(#linearGradient862-3)" stroke-width="3.7796"/>
 <path d="m17.166 23c-1.2003 0-2.166 0.95547-2.166 2.1426v12.143c0 3.1656 2.5765 5.7148 5.7773 5.7148h18.057c1.2003 0 2.166-0.95547 2.166-2.1426v-12.143c0-3.1656-2.5765-5.7148-5.7773-5.7148h-14.445zm31.564 0.0039c-0.42486-0.03143-0.90846 0.17568-1.3691 0.63477-1.6201 1.6144-3.5196 2.9767-4.8477 4.9062-0.54689 0.7946-0.50937 1.8466-0.51367 2.8359-0.0024 0.54283 0.0028 1.0835 0 1.6191 0.0028 0.53569-0.0024 1.0763 0 1.6191 0.0043 0.98936-0.03322 2.0413 0.51367 2.8359 1.328 1.9296 3.2276 3.2918 4.8477 4.9062 0.46068 0.45908 0.94428 0.66619 1.3691 0.63477 0.70809-0.05239 1.252-0.77105 1.252-2.1035 0-2.6086 0.0382-5.2482 0-7.8926 0.0382-2.6443 0-5.284 0-7.8926 0-1.3325-0.54386-2.0511-1.252-2.1035z" filter="url(#filter981)" opacity=".15"/>
 <path d="m17.166 22c-1.2003 0-2.166 0.95547-2.166 2.1426v12.143c0 3.1656 2.5765 5.7148 5.7773 5.7148h18.057c1.2003 0 2.166-0.95547 2.166-2.1426v-12.143c0-3.1656-2.5765-5.7148-5.7773-5.7148h-14.445zm31.564 0.0039c-0.42486-0.03143-0.90846 0.17568-1.3691 0.63477-1.6201 1.6144-3.5196 2.9767-4.8477 4.9062-0.54689 0.7946-0.50937 1.8466-0.51367 2.8359-0.0024 0.54283 0.0028 1.0835 0 1.6191 0.0028 0.53569-0.0024 1.0763 0 1.6191 0.0043 0.98936-0.03322 2.0413 0.51367 2.8359 1.328 1.9296 3.2276 3.2918 4.8477 4.9062 0.46068 0.45908 0.94428 0.66619 1.3691 0.63477 0.70809-0.05239 1.252-0.77105 1.252-2.1035 0-2.6086 0.0382-5.2482 0-7.8926 0.0382-2.6443 0-5.284 0-7.8926 0-1.3325-0.54386-2.0511-1.252-2.1035z" fill="#fff"/>
</svg>

<svg width="64" height="64" xmlns="http://www.w3.org/2000/svg"><defs><linearGradient id="a" x1="7.937" x2="7.937" y1="15.081" y2="1.852" gradientTransform="scale(3.7796)" gradientUnits="userSpaceOnUse"><stop stop-color="#6083f1" offset="0"/><stop stop-color="#85b6ff" offset="1"/></linearGradient><filter id="b" x="-.085" y="-.148" width="1.17" height="1.297" color-interpolation-filters="sRGB"><feGaussianBlur stdDeviation="1.237"/></filter></defs><g color="#000"><path d="M4.37.53C2.254.53.53 2.312.53 4.496v8.468c0 2.184 1.725 3.968 3.84 3.968h8.194c2.114 0 3.84-1.783 3.84-3.968V4.497c0-2.184-1.726-3.968-3.84-3.968zm.256.52h7.681c1.844 0 3.33 1.534 3.33 3.44v7.937c0 1.906-1.485 3.44-3.33 3.44h-7.68c-1.845 0-3.33-1.534-3.33-3.44V4.49c0-1.906 1.485-3.44 3.33-3.44z" opacity=".01" style="font-feature-settings:normal;font-variant-alternates:normal;font-variant-caps:normal;font-variant-east-asian:normal;font-variant-ligatures:normal;font-variant-numeric:normal;font-variant-position:normal;font-variation-settings:normal;inline-size:0;isolation:auto;mix-blend-mode:normal;shape-margin:0;shape-padding:0;text-decoration-color:#000;text-decoration-line:none;text-decoration-style:solid;text-indent:0;text-orientation:mixed;text-transform:none;white-space:normal" transform="scale(3.7796)"/><path d="M4.359.794C2.392.794.795 2.447.795 4.48v8.5c0 2.035 1.597 3.688 3.564 3.688h8.216c1.967 0 3.564-1.653 3.564-3.688v-8.5c0-2.034-1.597-3.687-3.564-3.687zm.272.256h7.672c1.842 0 3.325 1.534 3.325 3.44v7.937c0 1.906-1.483 3.44-3.325 3.44H4.63c-1.842 0-3.325-1.534-3.325-3.44V4.49c0-1.906 1.483-3.44 3.325-3.44z" opacity=".01" style="font-feature-settings:normal;font-variant-alternates:normal;font-variant-caps:normal;font-variant-east-asian:normal;font-variant-ligatures:normal;font-variant-numeric:normal;font-variant-position:normal;font-variation-settings:normal;inline-size:0;isolation:auto;mix-blend-mode:normal;shape-margin:0;shape-padding:0;text-decoration-color:#000;text-decoration-line:none;text-decoration-style:solid;text-indent:0;text-orientation:mixed;text-transform:none;white-space:normal" transform="scale(3.7796)"/><path d="M4.31 1.058c-1.866 0-3.375 1.539-3.375 3.44v8.467c0 1.9 1.57 3.439 3.435 3.439h8.2c1.866 0 3.427-1.538 3.427-3.44V4.498c0-1.9-1.51-3.439-3.375-3.439h-.097c1.794.087 3.214 1.582 3.214 3.432v7.937c0 1.906-1.506 3.44-3.377 3.44h-7.79c-1.871 0-3.377-1.534-3.377-3.44V4.49c0-1.85 1.42-3.345 3.214-3.432z" opacity=".03" style="font-feature-settings:normal;font-variant-alternates:normal;font-variant-caps:normal;font-variant-east-asian:normal;font-variant-ligatures:normal;font-variant-numeric:normal;font-variant-position:normal;font-variation-settings:normal;inline-size:0;isolation:auto;mix-blend-mode:normal;shape-margin:0;shape-padding:0;text-decoration-color:#000;text-decoration-line:none;text-decoration-style:solid;text-indent:0;text-orientation:mixed;text-transform:none;white-space:normal" transform="scale(3.7796)"/><path d="M4 46.969V49c0 6.648 5.896 12 12.544 12h30.961C54.153 61 60 55.648 60 49v-1.992a12.972 12.972 0 0 1-13 12.963H17.002A12.973 12.973 0 0 1 4 46.969z" opacity=".03" style="font-feature-settings:normal;font-variant-alternates:normal;font-variant-caps:normal;font-variant-east-asian:normal;font-variant-ligatures:normal;font-variant-numeric:normal;font-variant-position:normal;font-variation-settings:normal;inline-size:0;isolation:auto;mix-blend-mode:normal;shape-margin:0;shape-padding:0;text-decoration-color:#000;text-decoration-line:none;text-decoration-style:solid;text-indent:0;text-orientation:mixed;text-transform:none;white-space:normal"/><path d="M1.058 11.906v.592c0 1.939 1.573 3.5 3.332 3.5h8.16c1.76 0 3.325-1.561 3.325-3.5v-.58c-.006 2.095-1.537 3.78-3.44 3.78H4.498c-1.905 0-3.44-1.692-3.44-3.792z" opacity=".05" style="font-feature-settings:normal;font-variant-alternates:normal;font-variant-caps:normal;font-variant-east-asian:normal;font-variant-ligatures:normal;font-variant-numeric:normal;font-variant-position:normal;font-variation-settings:normal;inline-size:0;isolation:auto;mix-blend-mode:normal;shape-margin:0;shape-padding:0;text-decoration-color:#000;text-decoration-line:none;text-decoration-style:solid;text-indent:0;text-orientation:mixed;text-transform:none;white-space:normal" transform="scale(3.7796)"/></g><rect x="4" y="3.969" width="56.002" height="56.002" rx="13.002" ry="13.002" fill="url(#a)"/><path d="M17.166 23A2.15 2.15 0 0 0 15 25.143v12.143C15 40.45 17.576 43 20.777 43h18.057A2.15 2.15 0 0 0 41 40.858V28.715C41 25.549 38.424 23 35.223 23H20.778zm31.564.004c-.425-.032-.908.176-1.37.635-1.62 1.614-3.519 2.976-4.847 4.906-.547.794-.51 1.846-.513 2.836-.003.543.002 1.083 0 1.619.002.536-.003 1.076 0 1.619.004.99-.034 2.041.513 2.836 1.328 1.93 3.228 3.292 4.848 4.906.46.46.944.666 1.369.635.708-.053 1.252-.771 1.252-2.104 0-2.608.038-5.248 0-7.892.038-2.645 0-5.284 0-7.893 0-1.332-.544-2.051-1.252-2.103z" filter="url(#b)" opacity=".15"/><path d="M17.166 22A2.15 2.15 0 0 0 15 24.143v12.143C15 39.45 17.576 42 20.777 42h18.057A2.15 2.15 0 0 0 41 39.858V27.715C41 24.549 38.424 22 35.223 22H20.778zm31.564.004c-.425-.032-.908.176-1.37.635-1.62 1.614-3.519 2.976-4.847 4.906-.547.794-.51 1.846-.513 2.836-.003.543.002 1.083 0 1.619.002.536-.003 1.076 0 1.619.004.99-.034 2.041.513 2.836 1.328 1.93 3.228 3.292 4.848 4.906.46.46.944.666 1.369.635.708-.053 1.252-.771 1.252-2.104 0-2.608.038-5.248 0-7.892.038-2.645 0-5.284 0-7.893 0-1.332-.544-2.051-1.252-2.103z" fill="#fff"/></svg>
